public/icons/Scala-Dark.svg

<svg width="256" height="256" viewBox="0 0 256 256" fill="none" xmlns="http://www.w3.org/2000/svg">
<rect width="256" height="256" rx="60" fill="#242938"/>
<path fill-rule="evenodd" clip-rule="evenodd" d="M65.1865 102.421C66.9311 104.826 81.6418 109.362 103.585 114.086C125.529 118.292 148.349 134.898 166.097 129.777C178.101 126.307 191.124 95.3864 191.124 90.794V90.3225C191.124 87.1163 188.719 84.542 184.636 82.4014C167.898 73.8484 164.729 70.6988 158.524 72.4056C126.312 81.2981 69.4394 76.7528 65.1865 102.421Z" fill="#380D09"/>
<path fill-rule="evenodd" clip-rule="evenodd" d="M65.1865 165.206C66.9311 167.648 81.6418 172.146 103.585 176.88C128.103 181.35 149.424 195.919 167.181 190.79C179.185 187.319 191.124 158.181 191.124 153.579V153.126C191.124 149.93 188.719 147.346 184.636 145.215C171.868 138.425 154.997 130.947 148.802 132.654C116.533 141.527 73.4 143.479 65.1865 165.206Z" fill="#380D09"/>
<path fill-rule="evenodd" clip-rule="evenodd" d="M65.0073 115.916V116.368C64.9976 116.217 64.9976 116.066 65.0073 115.916V115.916Z" fill="#555555"/>
<path fill-rule="evenodd" clip-rule="evenodd" d="M167.134 40.1364C137.467 48.7082 90.4021 53.5458 65.0449 53.5458V101.969C65.053 102.135 65.116 102.294 65.2241 102.421C82.5281 102.421 135.949 96.7633 168.18 87.8991C173.802 86.4684 179.313 84.6374 184.673 82.4203C188.615 80.6475 191.161 78.7803 191.161 76.8378V28C191.123 32.6018 179.138 36.6756 167.134 40.1364V40.1364Z" fill="#DE3423"/>
<path fill-rule="evenodd" clip-rule="evenodd" d="M167.134 102.931C149.377 108.051 125.416 111.861 103.585 114.086C88.931 115.586 75.2387 116.368 65.0449 116.368V164.753C65.053 164.92 65.116 165.079 65.2241 165.206C82.5281 165.206 135.949 159.548 168.18 150.693C173.8 149.258 179.312 147.428 184.673 145.214C188.615 143.432 191.161 141.575 191.161 139.632V90.7942C191.123 95.3866 179.138 99.4603 167.134 102.931V102.931Z" fill="#DE3423"/>
<path fill-rule="evenodd" clip-rule="evenodd" d="M167.134 165.762C149.377 170.883 125.416 174.683 103.585 176.918C88.9123 178.417 75.2011 179.2 65.0073 179.2V228C82.1321 228 135.826 222.389 168.143 213.487C180.053 210.206 191.124 206.471 191.124 202.416V153.579C191.124 158.218 179.138 162.254 167.134 165.762V165.762Z" fill="#DE3423"/>
</svg>

<svg xmlns="http://www.w3.org/2000/svg" width="256" height="256" fill="none"><rect width="256" height="256" fill="#242938" rx="60"/><path fill="#380D09" fill-rule="evenodd" d="M65.186 102.421c1.745 2.405 16.456 6.941 38.399 11.665 21.944 4.206 44.764 20.812 62.512 15.691 12.004-3.47 25.027-34.39 25.027-38.983v-.471c0-3.207-2.405-5.781-6.488-7.922-16.738-8.553-19.907-11.702-26.112-9.995-32.212 8.892-89.085 4.347-93.337 30.015M65.186 165.206c1.745 2.442 16.456 6.94 38.399 11.674 24.518 4.47 45.839 19.039 63.596 13.91 12.004-3.471 23.943-32.609 23.943-37.211v-.453c0-3.196-2.405-5.78-6.488-7.911-12.768-6.79-29.639-14.268-35.834-12.561-32.269 8.873-75.402 10.825-83.615 32.552" clip-rule="evenodd"/><path fill="#555" fill-rule="evenodd" d="M65.007 115.916v.452a4 4 0 0 1 0-.452" clip-rule="evenodd"/><path fill="#DE3423" fill-rule="evenodd" d="M167.134 40.136c-29.667 8.572-76.732 13.41-102.09 13.41v48.423a.75.75 0 0 0 .18.452c17.304 0 70.725-5.658 102.956-14.522a122 122 0 0 0 16.493-5.479c3.942-1.773 6.488-3.64 6.488-5.582V28c-.038 4.602-12.023 8.676-24.027 12.136M167.134 102.931c-17.757 5.12-41.718 8.93-63.549 11.155-14.654 1.5-28.346 2.282-38.54 2.282v48.385a.76.76 0 0 0 .18.453c17.303 0 70.724-5.658 102.955-14.513a123 123 0 0 0 16.493-5.479c3.942-1.782 6.488-3.639 6.488-5.582V90.794c-.038 4.593-12.023 8.666-24.027 12.137M167.134 165.762c-17.757 5.121-41.718 8.921-63.549 11.156-14.673 1.499-28.384 2.282-38.578 2.282V228c17.125 0 70.819-5.611 103.136-14.513 11.91-3.281 22.981-7.016 22.981-11.071v-48.837c0 4.639-11.986 8.675-23.99 12.183" clip-rule="evenodd"/></svg>
